icons/communication/call-x-24.svg

<svg width="24" height="24" viewBox="0 0 24 24" fill="none" xmlns="http://www.w3.org/2000/svg">
<path d="M16.2803 1.21967C15.9874 0.926777 15.5126 0.926777 15.2197 1.21967C14.9268 1.51256 14.9268 1.98744 15.2197 2.28033L17.9393 5L15.2197 7.71967C14.9268 8.01256 14.9268 8.48744 15.2197 8.78033C15.5126 9.07322 15.9874 9.07322 16.2803 8.78033L19 6.06066L21.7197 8.78033C22.0126 9.07322 22.4874 9.07322 22.7803 8.78033C23.0732 8.48744 23.0732 8.01256 22.7803 7.71967L20.0607 5L22.7803 2.28033C23.0732 1.98744 23.0732 1.51256 22.7803 1.21967C22.4874 0.926777 22.0126 0.926777 21.7197 1.21967L19 3.93934L16.2803 1.21967Z" fill="black"/>
<path fill-rule="evenodd" clip-rule="evenodd" d="M3.96657 2.87559C5.1323 1.70986 7.02204 1.70986 8.18777 2.87559L9.49982 4.18764C10.4742 5.162 10.4203 6.69819 9.40482 7.7137L8.48952 8.62788C8.47228 8.64522 8.46181 8.66618 8.45798 8.6847C8.45437 8.70216 8.45712 8.71286 8.45983 8.719C9.07647 10.1175 10.0088 11.5049 11.2522 12.7483C12.4958 13.9919 13.8832 14.9253 15.2817 15.543C15.2879 15.5457 15.2986 15.5483 15.3158 15.5448C15.3344 15.5409 15.3552 15.5307 15.3725 15.5134L16.3814 14.5034C17.3284 13.5547 18.8653 13.5554 19.8129 14.5029L21.1238 15.8139C22.2895 16.9796 22.2895 18.8693 21.1238 20.0351L20.3963 20.7626C19.3824 21.7765 17.9327 22.1859 16.5194 21.9192C13.431 21.3354 10.1017 19.5552 7.27351 16.727C4.44531 13.8988 2.66522 10.5698 2.08134 7.48138C1.81469 6.06813 2.224 4.61815 3.2379 3.60426L3.96657 2.87559ZM5.02723 3.93625C5.60717 3.35631 6.54717 3.35631 7.12711 3.93625L8.43916 5.2483C8.7746 5.58375 8.82846 6.16873 8.34416 6.65303L7.42918 7.56691C6.98427 8.01182 6.81482 8.70641 7.08742 9.32439C7.78059 10.8964 8.81987 12.4373 10.1915 13.809C11.5631 15.1805 13.104 16.2209 14.6759 16.9153C15.294 17.188 15.9886 17.0186 16.4336 16.5736L17.4429 15.5632C17.8035 15.202 18.39 15.2013 18.7522 15.5636L20.0632 16.8745C20.6431 17.4545 20.6431 18.3945 20.0632 18.9744L19.3356 19.702C18.6933 20.3443 17.7537 20.6256 16.7978 20.4453C14.0457 19.925 10.9799 18.3121 8.33417 15.6664C5.68852 13.0207 4.07558 9.95477 3.55523 7.20274C3.37495 6.24681 3.65626 5.30722 4.29856 4.66492L5.02723 3.93625Z" fill="black"/>
</svg>

<svg xmlns="http://www.w3.org/2000/svg" width="24" height="24"><path d="M16.28 1.22a.75.75 0 10-1.06 1.06L17.94 5l-2.72 2.72a.75.75 0 001.06 1.06L19 6.06l2.72 2.72a.75.75 0 101.06-1.06L20.06 5l2.72-2.72a.75.75 0 00-1.06-1.06L19 3.94l-2.72-2.72z"/><path fill-rule="evenodd" d="M3.967 2.876a2.985 2.985 0 014.22 0L9.5 4.188c.974.974.92 2.51-.095 3.526l-.915.914a.116.116 0 00-.032.057.055.055 0 00.002.034c.616 1.399 1.549 2.786 2.792 4.03 1.244 1.243 2.631 2.176 4.03 2.794a.056.056 0 00.034.002.115.115 0 00.056-.032l1.01-1.01a2.426 2.426 0 013.43 0l1.312 1.31a2.985 2.985 0 010 4.222l-.728.728c-1.014 1.013-2.463 1.423-3.877 1.156-3.088-.584-6.417-2.364-9.245-5.192-2.829-2.828-4.609-6.157-5.193-9.246-.266-1.413.143-2.863 1.157-3.877l.729-.728zm1.06 1.06c.58-.58 1.52-.58 2.1 0L8.44 5.248c.336.336.39.92-.095 1.405l-.915.914a1.587 1.587 0 00-.342 1.757c.694 1.572 1.733 3.113 3.104 4.485 1.372 1.372 2.913 2.412 4.485 3.106a1.587 1.587 0 001.758-.341l1.009-1.01a.925.925 0 011.31 0l1.31 1.31c.58.58.58 1.52 0 2.1l-.727.728c-.643.642-1.582.924-2.538.743-2.752-.52-5.818-2.133-8.464-4.779-2.645-2.645-4.258-5.711-4.779-8.463-.18-.956.101-1.896.744-2.538l.728-.729z"/></svg>
